actions/16/go-first.svg

<?xml version="1.0" encoding="UTF-8" standalone="no"?>
<!-- Created with Inkscape (http://www.inkscape.org/) -->

<svg
   xmlns:dc="http://purl.org/dc/elements/1.1/"
   xmlns:cc="http://creativecommons.org/ns#"
   xmlns:rdf="http://www.w3.org/1999/02/22-rdf-syntax-ns#"
   xmlns:svg="http://www.w3.org/2000/svg"
   xmlns="http://www.w3.org/2000/svg"
   xmlns:xlink="http://www.w3.org/1999/xlink"
   xmlns:inkscape="http://www.inkscape.org/namespaces/inkscape"
   version="1.0"
   width="16"
   height="16"
   id="svg3324">
  <metadata
     id="metadata23">
    <rdf:RDF>
      <cc:Work
         rdf:about="">
        <dc:format>image/svg+xml</dc:format>
        <dc:type
           rdf:resource="http://purl.org/dc/dcmitype/StillImage" />
      </cc:Work>
    </rdf:RDF>
  </metadata>
  <defs
     id="defs3326">
    <linearGradient
       id="linearGradient2264">
      <stop
         id="stop2266"
         style="stop-color:#d7e866;stop-opacity:1"
         offset="0" />
      <stop
         id="stop2268"
         style="stop-color:#8cab2a;stop-opacity:1"
         offset="1" />
    </linearGradient>
    <linearGradient
       x1="28.314739"
       y1="29.353853"
       x2="28.314739"
       y2="9.0036469"
       id="linearGradient2463"
       xlink:href="#linearGradient2264"
       gradientUnits="userSpaceOnUse"
       gradientTransform="matrix(0.319447,0,0,-0.313352,1.9141307,15.486281)" />
    <linearGradient
       id="linearGradient4222">
      <stop
         id="stop4224"
         style="stop-color:#ffffff;stop-opacity:1"
         offset="0" />
      <stop
         id="stop4226"
         style="stop-color:#ffffff;stop-opacity:0"
         offset="1" />
    </linearGradient>
    <linearGradient
       x1="13.471772"
       y1="25.410501"
       x2="57.726395"
       y2="25.410501"
       id="linearGradient2459"
       xlink:href="#linearGradient4222"
       gradientUnits="userSpaceOnUse"
       gradientTransform="matrix(-0.3704967,0,0,-0.3617496,18.332055,17.508315)" />
    <linearGradient
       id="linearGradient5113-1">
      <stop
         id="stop5115-1"
         style="stop-color:#ffffff;stop-opacity:1"
         offset="0" />
      <stop
         id="stop5117-7"
         style="stop-color:#ffffff;stop-opacity:0"
         offset="1" />
    </linearGradient>
    <linearGradient
       x1="11.767765"
       y1="-4.4393449"
       x2="41.116112"
       y2="-7.0000062"
       id="linearGradient2478"
       xlink:href="#linearGradient5113-1"
       gradientUnits="userSpaceOnUse"
       gradientTransform="matrix(0,0.6129597,-0.4969311,0,-1.730057,-11.937827)" />
  </defs>
  <g
     id="layer1">
    <path
       d="m 9.5000007,14.176046 -7.000853,-6.1915613 7.000853,-6.1605311 0,2.6760464 6.0008533,0 0,7 -6.0008533,0 0,2.676046 0,0 z"
       inkscape:connector-curvature="0"
       id="path3288"
       style="fill:url(#linearGradient2463);fill-opacity:1;fill-rule:nonzero;stroke:#699536;stroke-width:0.99829447;stroke-linecap:round;stroke-linejoin:round;stroke-miterlimit:4;stroke-opacity:1;stroke-dasharray:none;stroke-dashoffset:0;marker:none;visibility:visible;display:inline;overflow:visible" />
    <rect
       width="12.943659"
       height="1.9877317"
       x="1.5580889"
       y="-2.4877317"
       transform="matrix(0,1,-1,0,0,0)"
       id="rect2488"
       style="fill:#c8dc5a;fill-opacity:1;fill-rule:nonzero;stroke:#699536;stroke-width:1;stroke-linecap:butt;stroke-linejoin:round;stroke-miterlimit:4;stroke-opacity:1;stroke-dasharray:none;stroke-dashoffset:0;marker:none;visibility:visible;display:inline;overflow:visible;enable-background:accumulate" />
    <path
       d="M 8.5000007,11.926403 3.9548857,8 l 4.545115,-4.0369382 0,1.5369382 6.0000003,0 0,5 -6.0000003,0 0,1.426403 z"
       inkscape:connector-curvature="0"
       id="path3290"
       style="opacity:0.35400008;fill:none;stroke:url(#linearGradient2459);stroke-width:0.99829447;stroke-linecap:butt;stroke-linejoin:miter;stroke-miterlimit:4;stroke-opacity:1;stroke-dasharray:none;stroke-dashoffset:0;marker:none;visibility:visible;display:inline;overflow:visible" />
    <path
       d="M 1.5,2.4982488 1.5,13.5"
       inkscape:connector-curvature="0"
       id="path2490"
       style="opacity:0.35400008;fill:none;stroke:url(#linearGradient2478);stroke-width:1;stroke-linecap:square;stroke-linejoin:miter;stroke-miterlimit:4;stroke-opacity:1;stroke-dasharray:none;stroke-dashoffset:0;marker:none;visibility:visible;display:inline;overflow:visible" />
  </g>
</svg>

<?xml version="1.0" encoding="UTF-8" standalone="no"?>
<!-- Created with Inkscape (http://www.inkscape.org/) -->
<svg
   xmlns:svg="http://www.w3.org/2000/svg"
   xmlns="http://www.w3.org/2000/svg"
   xmlns:xlink="http://www.w3.org/1999/xlink"
   version="1.0"
   width="16"
   height="16"
   id="svg3324">
  <defs
     id="defs3326">
    <linearGradient
       id="linearGradient2264">
      <stop
         id="stop2266"
         style="stop-color:#d7e866;stop-opacity:1"
         offset="0" />
      <stop
         id="stop2268"
         style="stop-color:#8cab2a;stop-opacity:1"
         offset="1" />
    </linearGradient>
    <linearGradient
       x1="28.314739"
       y1="29.353853"
       x2="28.314739"
       y2="9.0036469"
       id="linearGradient2463"
       xlink:href="#linearGradient2264"
       gradientUnits="userSpaceOnUse"
       gradientTransform="matrix(0.319447,0,0,-0.313352,1.9141307,15.486281)" />
    <linearGradient
       id="linearGradient4222">
      <stop
         id="stop4224"
         style="stop-color:#ffffff;stop-opacity:1"
         offset="0" />
      <stop
         id="stop4226"
         style="stop-color:#ffffff;stop-opacity:0"
         offset="1" />
    </linearGradient>
    <linearGradient
       x1="13.471772"
       y1="25.410501"
       x2="57.726395"
       y2="25.410501"
       id="linearGradient2459"
       xlink:href="#linearGradient4222"
       gradientUnits="userSpaceOnUse"
       gradientTransform="matrix(-0.3704967,0,0,-0.3617496,18.332055,17.508315)" />
    <linearGradient
       id="linearGradient5113-1">
      <stop
         id="stop5115-1"
         style="stop-color:#ffffff;stop-opacity:1"
         offset="0" />
      <stop
         id="stop5117-7"
         style="stop-color:#ffffff;stop-opacity:0"
         offset="1" />
    </linearGradient>
    <linearGradient
       x1="11.767765"
       y1="-4.4393449"
       x2="41.116112"
       y2="-7.0000062"
       id="linearGradient2478"
       xlink:href="#linearGradient5113-1"
       gradientUnits="userSpaceOnUse"
       gradientTransform="matrix(0,0.6129597,-0.4969311,0,-1.730057,-11.937827)" />
  </defs>
  <g
     id="layer1">
    <path
       d="M 9.5000007,14.176046 L 2.4991477,7.9844847 L 9.5000007,1.8239536 L 9.5000007,4.5 L 15.500854,4.5 L 15.500854,11.5 L 9.5000007,11.5 L 9.5000007,14.176046 L 9.5000007,14.176046 z"
       id="path3288"
       style="fill:url(#linearGradient2463);fill-opacity:1;fill-rule:nonzero;stroke:#699536;stroke-width:0.99829447;stroke-linecap:round;stroke-linejoin:round;marker:none;stroke-miterlimit:4;stroke-dasharray:none;stroke-dashoffset:0;stroke-opacity:1;visibility:visible;display:inline;overflow:visible" />
    <rect
       width="12.943659"
       height="1.9877317"
       x="1.5580889"
       y="-2.4877317"
       transform="matrix(0,1,-1,0,0,0)"
       id="rect2488"
       style="opacity:1;fill:#c8dc5a;fill-opacity:1;fill-rule:nonzero;stroke:#699536;stroke-width:1;stroke-linecap:butt;stroke-linejoin:round;marker:none;marker-start:none;marker-mid:none;marker-end:none;stroke-miterlimit:4;stroke-dasharray:none;stroke-dashoffset:0;stroke-opacity:1;visibility:visible;display:inline;overflow:visible;enable-background:accumulate" />
    <path
       d="M 8.5000007,11.926403 L 3.9548857,8 L 8.5000007,3.9630618 L 8.5000007,5.5 L 14.500001,5.5 L 14.500001,10.5 L 8.5000007,10.5 L 8.5000007,11.926403 z"
       id="path3290"
       style="opacity:0.35400008;fill:none;stroke:url(#linearGradient2459);stroke-width:0.99829447;stroke-linecap:butt;stroke-linejoin:miter;marker:none;stroke-miterlimit:4;stroke-dasharray:none;stroke-dashoffset:0;stroke-opacity:1;visibility:visible;display:inline;overflow:visible" />
    <path
       d="M 1.5,2.4982488 L 1.5,13.5"
       id="path2490"
       style="opacity:0.35400008;fill:none;stroke:url(#linearGradient2478);stroke-width:1;stroke-linecap:square;stroke-linejoin:miter;marker:none;stroke-miterlimit:4;stroke-dasharray:none;stroke-dashoffset:0;stroke-opacity:1;visibility:visible;display:inline;overflow:visible" />
  </g>
</svg>
